src/assets/outline/Chainlink.svg

<svg width="24" height="24" viewBox="0 0 24 24"  xmlns="http://www.w3.org/2000/svg">
<path d="M12 22.4292C11.52 22.4292 11.05 22.3192 10.66 22.1092L3.66 18.2192C2.85 17.7692 2.25 16.7392 2.25 15.8192V8.17922C2.25 7.25922 2.86001 6.21922 3.67001 5.77922L10.67 1.88922C11.43 1.46922 12.58 1.46922 13.34 1.88922L20.34 5.77922C21.15 6.22922 21.75 7.25922 21.75 8.17922V15.8292C21.75 16.7492 21.14 17.7892 20.33 18.2292L13.33 22.1192C12.96 22.3292 12.48 22.4292 12 22.4292ZM12 3.06922C11.77 3.06922 11.55 3.10922 11.39 3.19922L4.39001 7.08922C4.06001 7.26922 3.75 7.79922 3.75 8.17922V15.8292C3.75 16.2092 4.06001 16.7392 4.39001 16.9192L11.39 20.8092C11.7 20.9792 12.3 20.9792 12.6 20.8092L19.6 16.9192C19.93 16.7392 20.24 16.2092 20.24 15.8292V8.17922C20.24 7.79922 19.93 7.26922 19.6 7.08922L12.6 3.19922C12.45 3.10922 12.23 3.06922 12 3.06922Z" />
</svg>

<?xml version="1.0" encoding="UTF-8"?>
<svg width="24" height="24" viewBox="0 0 24 24" xmlns="http://www.w3.org/2000/svg">
 <path d="m12 22.429c-0.48 0-0.95-0.11-1.34-0.32l-7-3.89c-0.81-0.45-1.41-1.48-1.41-2.4v-7.64c0-0.92 0.61001-1.96 1.42-2.4l7-3.89c0.76-0.42 1.91-0.42 2.67 0l7 3.89c0.81 0.45 1.41 1.48 1.41 2.4v7.65c0 0.92-0.61 1.96-1.42 2.4l-7 3.89c-0.37 0.21-0.85 0.31-1.33 0.31zm0-19.36c-0.23 0-0.45 0.04-0.61 0.13l-7 3.89c-0.33 0.18-0.64001 0.71-0.64001 1.09v7.65c0 0.38 0.31001 0.91 0.64001 1.09l7 3.89c0.31 0.17 0.91 0.17 1.21 0l7-3.89c0.33-0.18 0.64-0.71 0.64-1.09v-7.65c0-0.38-0.31-0.91-0.64-1.09l-7-3.89c-0.15-0.09-0.37-0.13-0.6-0.13z"/>
</svg>
